!!! OTL: Literature44
!!! Chapter: 5
!!! Section: I
!!! Page: 354
!!! Mode: 
!!! Encoder: DJB
**kern
*staff1
*I"Piano
=1-
*clefG2
*k[b-e-]
*g:
*M4/4
4g/
8g/L
8f/J
4g/
[4b-\
=2
4b-\]
4cc\
4dd\
4dd\
=3
4dd\
8cc\L
8b-\J
4g/
8b-\L
8dd\J
=4
8b-/L
8g/
8g/
8f/J
2g/
=5
4d/
8f/L
8g/J
4b-\
8g/L
8f/J
=6
4d/
4f/
4c/
8d/L
8f/J
=7
4g/
4b-\
4b-\
8g/L
8f/J
=8
2.g/
4r
=9
!!linebreak:original
4b-\
8cc\L
8dd\J
4cc\
8g/L
8f/J
=10
8g/L
8g/
8g/
8b-/J
2g/
=11
4b-\
8cc\L
8dd\J
4b-\
8g/L
8f/J
=12
8g/L
8g/
8g/
8f/J
2g/
==
*-
